!!!OTL: 633. Uebermuth.
!!!ODT: 1890
!!!ARE: Europa, Mitteleuropa, Deutschland, Hessen, Wetterau
!!!SCT: E0633
!!!TXL: @@DE
!!!YEM: Copyright 1995, estate of Helmut Schaffrath.
**kern	**text
*ICvox	*
*M3/4	*
*k[b-e-a-]	*
*E-:	*
=1	=1
!LO:TX:a:t=Etwas bewegt.	!
!LO:TX:a:t=Mel. aus der Wetterau. 1890.	!
{4e-	Mädchen,
4g	.
4b-	geh
=2	=2
4ee-	du
8ddL	nur
8ccJ	.
4b-}	heim,
=3	=3
{4cc	's_wird
4a-	bald
8ee-L	ʒehn
8ccJ	.
=4	=4
4.b-/	Uh-
8a-	-re
4g}	ſein.
=5	=5
{8b-/	Geh
8b-/	und
8a-	leg
8a-	dich
8f	nie-
8f	-der
=6	=6
8cc	und
8cc	ſteh
8b-	mor-
8b-	-gen
8g	wie-
8g}	-der
=7	=7
{8b-/	Geh
8b-/	und
8a-	leg
8a-	dich
8f	nie-
8f	-der
=8	=8
8cc	und
8cc	ſteh
8b-	mor-
8b-	-gen
8g	wie-
8g}	-der
=9	=9
{4e-	bei
4g	Ʒei-
4b-/	-ten
=10	=10
(8b-q	.
2.gg)}	auf,
=11	=11
{4ff	bei
4aa-	Ʒei-
4dd	-ten
=12	=12
2ee-	auf!
4r}	.
==	==
!!!AGN: Liebes - Lied
!!!ONB: ESAC (Essen Associative Code) Database: ERK2
!!!AMT: simple triple
!!!AIN: vox
!!!EED: Helmut Schaffrath
!!!EEV: 1.0
!!!GTL: Liebeslieder [Neuere (aus dem 18. bis 19. Jahrh.) - Liebeslust]
!!!URL-scan: https://rosdok.uni-rostock.de/mcrviewer/recordIdentifier/rosdok_ppn745177662/iview2/phys_0446.iview2?x=192.47699748739979&y=2277.1607486326247&scale=0.7029437510502773&rotation=0&layout=singlePageLayout
!!!ENC: Anna Maria Matuszewska
!!!EEV: 2024/12/12
*-	*-
